file/yoshinoya.svg

<svg clip-rule="evenodd" fill-rule="evenodd" stroke-linejoin="round" stroke-miterlimit="1.41421" viewBox="0 0 560 400" xmlns="http://www.w3.org/2000/svg"><path d="m298.52 129.3v2.97c0 41.22-33.3 74.43-74.52 74.43s-74.52-33.3-74.52-74.43v-2.97zm-12.78 10.62h-17.46c-.99 9.81-4.59 17.82-9.72 23.76-8.55-6.57-13.77-13.77-17.46-23.76h-17.1c2.61 11.61 11.7 25.74 22.14 34.11-4.86 2.97-10.8 5.49-18.81 6.48v15.03c14.58-.99 26.46-6.57 35.73-14.31 13.32-11.34 21.87-27.18 22.68-41.31z" fill="#ff671f" fill-rule="nonzero" transform="matrix(2.41546 0 0 2.41546 -261.063 -205.797)"/></svg>

<?xml version="1.0" encoding="UTF-8" standalone="no"?>
<!DOCTYPE svg PUBLIC "-//W3C//DTD SVG 1.1//EN" "http://www.w3.org/Graphics/SVG/1.1/DTD/svg11.dtd">
<svg width="100%" height="100%" viewBox="0 0 560 400" version="1.1" xmlns="http://www.w3.org/2000/svg" xmlns:xlink="http://www.w3.org/1999/xlink" xml:space="preserve" xmlns:serif="http://www.serif.com/" style="fill-rule:evenodd;clip-rule:evenodd;stroke-linejoin:round;stroke-miterlimit:1.41421;">
    <g transform="matrix(2.41546,0,0,2.41546,-261.063,-205.797)">
        <path d="M298.52,129.3L298.52,132.27C298.52,173.49 265.22,206.7 224,206.7C182.78,206.7 149.48,173.4 149.48,132.27L149.48,129.3L298.52,129.3ZM285.74,139.92L268.28,139.92C267.29,149.73 263.69,157.74 258.56,163.68C250.01,157.11 244.79,149.91 241.1,139.92L224,139.92C226.61,151.53 235.7,165.66 246.14,174.03C241.28,177 235.34,179.52 227.33,180.51L227.33,195.54C241.91,194.55 253.79,188.97 263.06,181.23C276.38,169.89 284.93,154.05 285.74,139.92Z" style="fill:rgb(255,103,31);fill-rule:nonzero;"/>
    </g>
</svg>
